!!!COM: Flecha, Matheo
!!!CDT: ~1481///-~1553///
!!!CNT: Spanish; Catalan
!!!OTL: La bomba
!!!AIN: Ensalada
**kern	**kern	**kern	**kern
*staff4	*staff3	*staff2	*staff1
*Ivox	*Ivox	*Ivox	*Ivox
*>[A,B,B,C,D,D1,D,D2,E,F,F,G]	*>[A,B,B,C,D,D1,D,D2,E,F,F,G]	*>[A,B,B,C,D,D1,D,D2,E,F,F,G]	*>[A,B,B,C,D,D1,D,D2,E,F,F,G]
*>norep[A,B,C,D,D2,E,F,G]	*>norep[A,B,C,D,D2,E,F,G]	*>norep[A,B,C,D,D2,E,F,G]	*>norep[A,B,C,D,D2,E,F,G]
*>A	*>A	*>A	*>A
*clefF4	*clefGv2	*clefGv2	*clefG2
*k[f#]	*k[f#]	*k[f#]	*k[f#]
*met(C)	*met(C)	*met(C)	*met(C)
*M4/4	*M4/4	*M4/4	*M4/4
*MM120	*MM120	*MM120	*MM120
=1-	=1-	=1-	=1-
1r	2.B\	1r	1r
.	4E/	.	.
=2	=2	=2	=2
1r	4B\	1r	1r
.	4E/	.	.
.	4B\	.	.
.	4c\	.	.
=3	=3	=3	=3
1r	2d\	2.B\	1r
.	2G/	.	.
.	.	4E/	.
=4	=4	=4	=4
4.E\	4r	4B\	4.g/
.	8G/L	4E/	.
8E\	8G/J	.	8g/
4E\	4G/	4B\	4g/
4E\	4E/	4c\	4g/
=5	=5	=5	=5
2D\	4F#/	4d\	2f#/
.	4D/	2B\	.
2C/	2E/	.	2e/
.	.	4A/	.
=6	=6	=6	=6
2BB/	2F#/	2B\	2d#/
4r	4r	4r	4r
8BB/L	8B\L	8F#/L	8d#/L
8BB/J	8B\J	8F#/J	8d#/J
=7	=7	=7	=7
4BB/	4B\	4F#/	4d#/
4BB/	4B\	4F#/	4d#/
4BB/	4B\	4F#/	4d#/
4BB/	4B\	4F#/	4d#/
=8	=8	=8	=8
1C	2G/	2E/	2e/
.	4.c\	4.e\	4.g/
.	8c\	8e\	8g/
=9	=9	=9	=9
4.E\	4B\	4e\	4g/
.	4E/	4B\	4g/
8E\	.	.	.
4E\	4B\	4B\	4g/
4E\	4c\	4G/	4g/
=10	=10	=10	=10
2D\	4d\	4A/	2f#/
.	2B\	4D/	.
2C/	.	2E/	2e/
.	4A/	.	.
=11	=11	=11	=11
2BB/	2B\	2F#/	2d#/
4r	4r	4r	4r
8BB/L	8F#/L	8B\L	8d#/L
8BB/J	8F#/J	8B\J	8d#/J
=12	=12	=12	=12
4BB/	4F#/	4B\	4d#/
4BB/	4F#/	4B\	4d#/
4BB/	4F#/	4B\	4d#/
4BB/	4F#/	4B\	4d#/
=13	=13	=13	=13
2C/	1E	1G	2e/
[2E\	.	.	[2g/
=14	=14	=14	=14
4E\]	4.G/	4.B\	4g/]
4D\	.	.	4f#/
.	8G/	8B\	.
4C/	4A/	4c\	4e/
4BB/	4B\	4d\	4d/
=15	=15	=15	=15
4C/	4E/	4e\	4g/
4BB/	4G/	4d\	4g/
2AA/	4G/	2c\	2a/
.	4F#/	.	.
=16	=16	=16	=16
1GG	1G	2B\	1b
.	.	[2d\	.
=17	=17	=17	=17
2r	2.d\	4d\]	2r
.	.	4c\	.
[2G\	.	4B\	[2b\
.	4c\	4A/	.
=18	=18	=18	=18
4G\]	4B\	4.G/	4b\]
4F#\	4d\	.	4a/
.	.	8A/	.
4E\	4G/	8B\L	4g/
.	.	8c\J	.
4D\	4A/	4d\	4f#/
=19	=19	=19	=19
4E\	4E/	4c\	4g/
4D\	4F#/	2B\	4f#/
2C/	4G/	.	2e/
.	4E/	4A/	.
=20	=20	=20	=20
1BB	1F#	2B\	2f#/
.	.	4r	4r
.	.	8B\L	8f#/L
.	.	8B\J	8f#/J
=21	=21	=21	=21
2r	2r	8e\L	8g/L
.	.	8d\J	8f#/J
.	.	8e\L	8g/L
.	.	8d\J	8a/J
4r	4r	2B\	2b\
8BB/L	8F#/L	.	.
8BB/J	8F#/J	.	.
=22	=22	=22	=22
8E\L	8G/L	2r	2r
8D\J	8F#/J	.	.
8E\L	8G/L	.	.
8D\J	8A/J	.	.
2BB/	2B\	4r	4r
.	.	8B\L	8f#/L
.	.	8B\J	8f#/J
=23	=23	=23	=23
2r	2r	8e\L	8g/L
.	.	8d\J	8f#/J
.	.	8e\L	8g/L
.	.	8d\J	8a/J
4r	4r	2B\	2b\
8BB/L	8F#/L	.	.
8BB/J	8F#/J	.	.
=24	=24	=24	=24
8E\L	8G/L	2r	2r
8D\J	8F#/J	.	.
8E\L	8G/L	.	.
8D\J	8A/J	.	.
2BB/	2B\	4r	4r
.	.	8d\L	8f#/L
.	.	8d\J	8f#/J
=25	=25	=25	=25
4r	4r	2B\	2b\
8D\L	8F#/L	.	.
8D\J	8F#/J	.	.
2BB/	4B\	2r	4r
.	4d\	.	4f#/
=26	=26	=26	=26
2r	4B\	2r	4g/
.	8B/L	.	8g/L
.	8A/J	.	8f#/J
4r	4G/	4r	4e/
4BB/	4F#/	4B\	4d#/
=27	=27	=27	=27
4E\	2E/	4c\	2e/
8E\L	.	8c\L	.
8D\J	.	8B\J	.
4C/	4r	4A/	4r
4BB/	4B\	4G#/	4b\
=28	=28	=28	=28
*M3/4	*M3/4	*M3/4	*M3/4
2AA/	4e\	2A/	4cc\
.	8e\L	.	8cc\L
.	8d\J	.	8b\J
8r	8c\L	8r	8a/L
8E\	8B\J	8e\	8g#/J
=29	=29	=29	=29
4A\	4A/	4fn\	4a/
8A\L	2r	8f\L	2r
8G\J	.	8e\J	.
8F#\L	.	8d\L	.
8E\J	.	8c\J	.
=30	=30	=30	=30
*M2/4	*M2/4	*M2/4	*M2/4
4D\	4r	4d\	4r
4D\	4A/	4d\	4fn/
=31	=31	=31	=31
*M3/2	*M3/2	*M3/2	*M3/2
2D\	2A/	2d\	2fn/
4D\	4A/	4d\	4f/
4D\	4A/	4d\	4f/
4D\	4A/	4d\	4f/
4D\	4A/	4d\	4f/
=32	=32	=32	=32
*M4/4	*M4/4	*M4/4	*M4/4
[2C/	[2c\	2e\	2g/
2C/]	2c\]	2r	4r
.	.	.	8e/L
.	.	.	8e/J
=33	=33	=33	=33
*M3/4	*M3/4	*M3/4	*M3/4
2r	2r	8B\L	8g/L
.	.	8B\J	8f#/J
.	.	8c\L	8e/L
.	.	8B\J	8d/J
4r	4r	8A/L	8e/L
.	.	8G#/J	8e/J
=34	=34	=34	=34
4r	4r	8A/L	4.a/
.	.	8A/J	.
2r	2r	8.d\L	.
.	.	.	8g/
.	.	16d\Jk	.
.	.	8d\L	8f#/L
.	.	8c\J	8e/J
=35	=35	=35	=35
*M4/4	*M4/4	*M4/4	*M4/4
4r	2r	8B\	4g/
.	.	4e\	.
8BB/L	.	.	4f#/
8BB/J	.	8d#\	.
4.E\	8B\L	2e\	2e/
.	8B\J	.	.
.	[4e\	.	.
8D\	.	.	.
=36	=36	=36	=36
8C/L	8e\L]	1r	1r
8BB/J	8d\J	.	.
8AA\L	8c\L	.	.
8A\J	8B\J	.	.
8A\L	8A\L	.	.
8G\J	8e\J	.	.
4Fn\	8e\L	.	.
.	8d\J	.	.
=37	=37	=37	=37
[4E\	4c\	4r	1r
8E\L]	4.B\	8r	.
8D\J	.	8B\	.
2C/	.	4e\	.
.	8B\	.	.
.	4A/	8e\L	.
.	.	8e\J	.
=38	=38	=38	=38
2BB/	8B/L	4.d\	4r
.	8F#/J	.	.
.	4B\	.	8r
.	.	8c\	8f#/
4r	8B/L	8B\L	4b\
.	8A/J	8B\J	.
4r	8G/L	4e\	8b/L
.	8F#/J	.	8a/J
=39	=39	=39	=39
2r	4E/	8e\L	8g/L
.	.	8d\J	8f#/J
.	8E/L	8c\L	4e/
.	8E/J	8B\J	.
2r	4.A/	4A/	8e/L
.	.	.	8e/J
.	.	8A/L	[4a/
.	8G/	8A/J	.
=40	=40	=40	=40
1r	8F#/L	4.d\	8a/L]
.	8E/J	.	8g/J
.	4D/	.	8f#/L
.	.	8c\	8e/J
.	4G/	8B/L	2d/
.	.	8A/J	.
.	4D/	[4B\	.
=41	=41	=41	=41
2r	4E/	4B\]	2c/
.	4F#/	4A/	.
8r	[4G/	[4B\	[4B/
4E\	.	.	.
.	4G/]	4B\]	4B/]
8BB/	.	.	.
=42	=42	=42	=42
8E\L	8r	1r	1r
8D\J	4B\	.	.
8E\L	.	.	.
8C\J	8A/	.	.
4BB/	8B/L	.	.
.	8F#/J	.	.
8r	8B/L	.	.
8E\	8G/J	.	.
=43	=43	=43	=43
8E\L	4F#/	1r	1r
8D\J	.	.	.
8.G\L	8r	.	.
.	4B\	.	.
16G\Jk	.	.	.
8G\L	.	.	.
8F#\J	8A/	.	.
16D\LL	8.d\L	.	.
16E\	.	.	.
16F#\	.	.	.
16G\JJ	16d\Jk	.	.
=44	=44	=44	=44
8A\	8c\L	2r	2r
4G\	8B\J	.	.
.	4A/	.	.
8F#\	.	.	.
4G\	4G/	4r	4r
8E\L	8B\L	8e\L	8g/L
8E\J	8B\J	8e\J	8g/J
=45	=45	=45	=45
4E\	4B\	4e\	4g/
4E\	4B\	4e\	4g/
4r	4r	4r	4r
8C/L	8c\L	8e\L	8g/L
8C/J	8c\J	8e\J	8g/J
=46	=46	=46	=46
*M3/4	*M3/4	*M3/4	*M3/4
2C/	2c\	2e\	2g/
4C/	4c\	4e\	4g/
=47	=47	=47	=47
*M6/4	*M6/4	*M6/4	*M6/4
2G\	2B\	1.r	1.r
4F#\	4d\	.	.
2E\	2c\	.	.
4D\	4B\	.	.
=48	=48	=48	=48
4E\	4G/	1.r	1.r
2C/	2A/	.	.
2.BB/	2.B\	.	.
=49	=49	=49	=49
*M9/4	*M9/4	*M9/4	*M9/4
1.r	1.r	2d\	2f#/
.	.	4d\	4f#/
.	.	2e\	2g/
.	.	4d\	4f#/
2.r	2.r	4e\	4g/
.	.	2c\	2a/
=50	=50	=50	=50
*M2/4	*M2/4	*M2/4	*M2/4
4r	4r	4B\	4b\
4GG/	4G/	4d\	4b\
=51	=51	=51	=51
*M3/2	*M3/2	*M3/2	*M3/2
2GG/	2G/	2d\	2b\
4GG/	4G/	4d\	4b\
4GG/	4G/	4d\	4b\
4D\	4F#/	4d\	4a/
4E\	4G/	4B\	4g/
=52	=52	=52	=52
*M4/4	*M4/4	*M4/4	*M4/4
2D\	2A/	2d\	4g/
.	.	.	4f#/
2GG/	2G/	4d\	4g/
.	.	4r	4r
=53	=53	=53	=53
*M7/8	*M7/8	*M7/8	*M7/8
2..r	2..r	8B\L	8d/L
.	.	8c\	8e/
.	.	8B\J	8d/J
.	.	4c\	4e/
.	.	8B/L	8d/L
.	.	8G/J	8B/J
=54	=54	=54	=54
4r	4r	4A/	4c/
4r	4r	[4B\	[4B/
8D\	8F#/	4.B\]	4.B/]
8E\L	8G/L	.	.
8D\J	8F#/J	.	.
=55	=55	=55	=55
*M2/4	*M2/4	*M2/4	*M2/4
4E\	4G/	2r	2r
8D/L	8F#/L	.	.
8BB/J	8D/J	.	.
=56	=56	=56	=56
*M3/4	*M3/4	*M3/4	*M3/4
2C/	2E/	2.r	2.r
4BB/	4F#/	.	.
=57	=57	=57	=57
*M6/4	*M6/4	*M6/4	*M6/4
1.r	1.r	4d\	4b\
.	.	4e\	4b\
.	.	4c\	4a/
.	.	2B\	2b\
.	.	4r	4r
=58	=58	=58	=58
1.r	1.r	2e\	4g/
.	.	.	2f#/
.	.	4d#\	.
.	.	2e\	2e/
.	.	4r	4r
=59	=59	=59	=59
4E\	4B\	4e\	4g/
4BB/	4B\	4d\	4f#/
4C/	4E/	4A/	4e/
2BB/	2F#/	2B\	2d#/
4r	4r	4r	4r
=60	=60	=60	=60
4AA/	4A/	4c\	2e/
2BB/	2F#/	2B\	.
.	.	.	4d#/
2.E\	2E/	2B\	2e/
.	4r	4r	4f#/
=61	=61	=61	=61
1.r	1.r	1.r	4.g/
.	.	.	8f#/
.	.	.	4g/
.	.	.	2f#/
.	.	.	4a/
=62	=62	=62	=62
2.r	2.r	2.r	4.g/
.	.	.	8f#/
.	.	.	4g/
4r	4r	4r	2f#/
4r	4r	4r	.
4BB/	4F#/	4B\	4d#/
=63	=63	=63	=63
*M6/4	*M6/4	*M6/4	*M6/4
4.C/	4.E/	4.A/	4.e/
8BB/	8F#/	8B\	8d#/
4C/	4E/	4A/	4e/
2BB/	2F#/	2B\	2d#/
4D\	4D/	4A/	4f#/
=64	=64	=64	=64
4.C/	4.E/	4.A/	4.e/
8BB/	8F#/	8B\	8d#/
4C/	4E/	4A/	4e/
2.BB/	2.F#/	2.B\	2.d#/
=65	=65	=65	=65
*M2/4	*M2/4	*M2/4	*M2/4
4.GG/	4.G/	4.B\	4.d/
8AA/	8G/	8B\	8d/
=66	=66	=66	=66
*M4/4	*M4/4	*M4/4	*M4/4
1BB	1F#	1B	1d#
=67	=67	=67	=67
4BB/	4F#/	1r	4B/
8BB/	8F#/	.	8B/
4E\	4G/	.	4B/
8D#\	8F#/	.	8B/
8E\L	8G/L	.	8B/L
8D#\J	8F#/J	.	8B/J
=68	=68	=68	=68
*M3/4	*M3/4	*M3/4	*M3/4
4E\	4G/	2.r	4B/
4BB/	4F#/	.	4B/
4r	4E/	.	4B/
=69	=69	=69	=69
*M2/4	*M2/4	*M2/4	*M2/4
4E\	[4G/	2r	4B/
[4G\	8G/L]	.	4e/
.	8F#/J	.	.
=70	=70	=70	=70
*M3/4	*M3/4	*M3/4	*M3/4
8G\L]	8E/L	2.r	4.g/
8F#\J	8D/J	.	.
4E\	8C/L	.	.
.	8BB/J	.	8g/
8D\L	[4B\	.	4f#/
8D\J	.	.	.
=71	=71	=71	=71
*M4/4	*M4/4	*M4/4	*M4/4
2C/	4B\]	2r	2e/
.	4A/	.	.
2BB/	2B\	4r	2d#/
.	.	4B\	.
=72	=72	=72	=72
1r	1r	4B\	8r
.	.	.	8f#/
.	.	8B\	4f#/
.	.	4d\	.
.	.	.	8f#/
.	.	8d\	4a/
.	.	8A/L	.
.	.	8B/J	8a/
=73	=73	=73	=73
1r	1r	4c\	8e/L
.	.	.	8f#/J
.	.	4B\	4g/
.	.	8r	4f#/
.	.	4B\	.
.	.	.	8r
.	.	8B\	[8f#/
=74	=74	=74	=74
2r	2r	8d\L	8f#/L]
.	.	8d\J	8f#/J
.	.	8A/L	8a/L
.	.	8B/J	8a/J
4r	4r	4c\	8e/L
.	.	.	8f#/J
4E\	4G/	4B\	4g/
=75	=75	=75	=75
*M2/4	*M2/4	*M2/4	*M2/4
4D\	4A/	4r	4f#/
8BB\L	8B\L	8r	4r
8G\J	8d\J	8B\	.
=76	=76	=76	=76
*M3/4	*M3/4	*M3/4	*M3/4
4F#\	4d\	4A/	4r
8D\L	8d\L	8F#/L	4r
8G\J	8d\J	8B/J	.
8F#\L	8d\L	8B/L	4r
8F#\J	8d\J	8A/J	.
=77	=77	=77	=77
4G\	4d\	4B\	2.r
8r	8r	8r	.
4G\	4B\	4d\	.
8G\	8B\	8d\	.
=78	=78	=78	=78
4C/	4c\	4e\	2.r
8C/	8c\	8e\	.
4G\	4B\	4d\	.
8F#\	8A/	8d\	.
=79	=79	=79	=79
*M2/4	*M2/4	*M2/4	*M2/4
4E\	4G/	4c#\	2r
4D\	4A/	4d\	.
=80	=80	=80	=80
8r	8r	8r	2r
4G\	4B\	4d\	.
8G\	8B\	8d\	.
=81	=81	=81	=81
*M3/4	*M3/4	*M3/4	*M3/4
4G\	4B\	4d\	2.r
8G\L	8B\L	8d\L	.
8G\J	8B\J	8d\J	.
8G\L	8B\L	8d\L	.
8G\J	8B\J	8d\J	.
=82	=82	=82	=82
*M9/4	*M9/4	*M9/4	*M9/4
2.C/	2.c\	2.e\	2.r
2G\	2B\	2d\	4r
.	.	.	4r
4r	4r	4d\	4b\
2.r	2.r	4.d\	4.b\
.	.	8c\	8a/
.	.	4B\	4g/
=83	=83	=83	=83
*M6/4	*M6/4	*M6/4	*M6/4
2.r	2.r	4c\	4e/
.	.	2A/	2f#/
4r	4r	2G/	2g/
4r	4r	.	.
4GG/	4G/	4d\	4b\
=84	=84	=84	=84
4.GG/	4.G/	4.d\	4.b\
8GG/	8A/	8d\	8a/
4G\	4B\	4d\	4g/
4C/	4c\	4e\	4g/
2D\	2A/	2d\	2f#/
=85	=85	=85	=85
*met(C)	*met(C)	*met(C)	*met(C)
*M4/4	*M4/4	*M4/4	*M4/4
4GG/	4G/	2B\	2g/
4r	16d\LL	.	.
.	16d\	.	.
.	16d\	.	.
.	16d\JJ	.	.
16G\LL	16d\LL	2r	2r
16G\	16d\J	.	.
16G\	8d\J	.	.
16G\JJ	.	.	.
16G\LL	4d\	.	.
16G\J	.	.	.
8G\J	.	.	.
=86	=86	=86	=86
4G\	8B\L	4r	4r
.	8c\J	.	.
8G\L	4d\	8B\L	8g/L
8C\J	.	8c\J	8a/J
4G\	2r	8d\L	8b\L
.	.	8d\J	8b\J
4r	.	8e\L	8cc\L
.	.	8c\J	8a\J
=87	=87	=87	=87
4r	4r	4B\	4b\
8BB/L	8G/L	4r	4r
8C/J	8A/J	.	.
8D\L	8B\L	2r	2r
8D\J	8B\J	.	.
8E\L	8c\L	.	.
8C\J	8A\J	.	.
=88	=88	=88	=88
4BB/	4B\	8r	8r
.	.	16d\LL	16f#/LL
.	.	16d\JJ	16f#/JJ
8r	8r	8c\L	8g/L
16D\LL	16F#/LL	8B\J	8d/J
16D\JJ	16F#/JJ	.	.
8C/L	8G/L	8r	8r
8BB/J	8D/J	16d\LL	16f#/LL
.	.	16d\JJ	16f#/JJ
8r	8r	8c\L	8g/L
16D\LL	16F#/LL	8B\J	8d/J
16D\JJ	16F#/JJ	.	.
=89	=89	=89	=89
8C/L	8G/L	8r	8r
8BB/J	8D/J	8d\	8b\
8r	8r	4d\	4b\
8GG/	8G/	.	.
4GG/	4G/	4.d\	4.b\
8GG/L	8G/L	.	.
8BB/J	8D/J	16c\LL	8g/
.	.	16B\JJ	.
=90	=90	=90	=90
8C/L	8E/L	8A/L	8a/L
8BB/J	8D/J	8G/J	8b/J
4AA/	4C/	8G/L	4cc\
.	.	8F#/J	.
2GG/	4D/	2G/	2b\
.	8.d\L	.	.
.	16d\Jk	.	.
=91	=91	=91	=91
8.G\L	16d\LL	1r	1r
.	16d\	.	.
.	16d\	.	.
16G\Jk	16d\JJ	.	.
16G\LL	4d\	.	.
16G\	.	.	.
16G\	.	.	.
16G\JJ	.	.	.
4G\	8d\L	.	.
.	8B\J	.	.
4G\	8B\L	.	.
.	8c\J	.	.
=92	=92	=92	=92
8r	4d\	8r	8r
8G\	.	8B\	8g/
8G\L	4r	8B\L	8g/L
8C\J	.	8c\J	8a/J
4G\	2r	4d\	4b\
4r	.	8e\L	8cc\L
.	.	[8d\J	[8b\J
=93	=93	=93	=93
2r	2r	8d\L]	8b/L]
.	.	8B\J	8g/J
.	.	4c\	4a/
8r	8r	2B\	2b\
8G\	8d\	.	.
8G\L	8d\L	.	.
16G\L	16d\L	.	.
16G\JJ	16d\JJ	.	.
=94	=94	=94	=94
8G\L	8d\L	2r	2r
8G\J	8d\J	.	.
4A\	4c\	.	.
8E\L	8B\L	8r	8r
8E\J	8B\J	8e\	8g/
8E\L	8B\L	8e\L	8g/L
16E\L	16B\L	16e\L	16g/L
16E\JJ	16B\JJ	16e\JJ	16g/JJ
=95	=95	=95	=95
8E\L	8B\L	8e\L	8g/L
8E\J	8B\J	8e\J	8g/J
4Fn\	4A/	4c\	4a/
2C/	2G/	2c\	2e/
=96	=96	=96	=96
4r	4r	4r	4r
2C/	2G/	2c\	2e/
4C/	4G/	4c\	4e/
=97	=97	=97	=97
4C/	4G/	4c\	4e/
4C/	4G/	4c\	4e/
4D\	4d\	4A/	4f#/
4E\	4B\	4G/	4g/
=98	=98	=98	=98
2D\	2d\	2A/	4g/
.	.	.	4f#/
4GG/	4B\	4G/	4g/
8r	8r	8r	8r
8G\	8B\	8d\	8g/
=99	=99	=99	=99
16D\LL	16A/LL	16d\LL	16f#/LL
16D\J	16A/J	16d\J	16f#/J
8G\J	8B/J	8d\J	8g/J
16D\LL	16A/LL	16d\LL	16f#/LL
16D\J	16A/J	16d\J	16f#/J
8G\J	8B/J	8d\J	8g/J
4D\	4A/	8d\L	8f#/L
.	.	16d\L	16f#/L
.	.	16d\JJ	16f#/JJ
8r	8r	8c\L	8g/L
16D\LL	16F#/LL	8B\J	8d/J
16D\JJ	16F#/JJ	.	.
=100	=100	=100	=100
8C/L	8G/L	8r	8r
8BB/J	8D/J	16d\LL	16f#/LL
.	.	16d\JJ	16f#/JJ
8r	8r	8c\L	8g/L
16D\LL	16F#/LL	8B\J	8d/J
16D\JJ	16F#/JJ	.	.
8C/L	8G/L	8r	8r
8BB/J	8D/J	8B\	8d/
8r	8r	8c\L	[4g/
8GG/	8B\	8d\J	.
=101	=101	=101	=101
4C/	4c\	4e\	4g/]
4D\	4A/	2d\	4f#/
2E\	2G/	.	2g/
.	.	4c#\	.
=102	=102	=102	=102
2D\	2A/	4d\	2f#/
.	.	8r	.
.	.	16A/LL	.
.	.	16A/JJ	.
8r	8r	8d\L	8r
16D\LL	16A/LL	16d\L	16f#/LL
16D\JJ	16A/JJ	16d\JJ	16f#/JJ
8G\L	8B/L	4d\	8g/L
16D\L	16A/L	.	16f#/L
16D\JJ	16A/JJ	.	16f#/JJ
=103	=103	=103	=103
8G/L	8B\L	8r	8g/L
8GG/J	8B\J	8d\	8g/J
2C/	2c\	4.e\	2g/
.	.	8d\	.
4D\	4A/	[4d\	4f#/
=104	=104	=104	=104
2E\	2G/	4d\]	2g/
.	.	4c#\	.
4D\	4A/	8d\L	4f#/
.	.	16A\L	.
.	.	16A\JJ	.
8r	8r	8d\L	8r
16E\LL	16G/LL	16B\L	16g/LL
16E\JJ	16G/JJ	16c#\JJ	16g/JJ
=105	=105	=105	=105
8D\L	8A/L	8d\L	8f#/L
8G\J	8B/J	8d\J	8b/J
8C/L	8c/L	8e\L	8a/L
8E/J	8G/J	8B\J	8g/J
8D/L	8A/L	8d\L	8f#/L
8GG/J	8G/J	8B\J	8g/J
8E/L	8B\L	8e\L	8g/L
8AA/J	8c\J	8e\J	8a/J
=106	=106	=106	=106
4D\	4d\	4A/	4f#/
8E\L	8B\L	8e\L	8g/L
8AA\J	8c\J	8e\J	8a/J
4D\	4d\	4A/	4f#/
8r	8r	8r	8r
8BB/	8d\	8B\	8f#/
=107	=107	=107	=107
8C/L	8A/L	8E/L	8e/L
8BB/J	8B/J	8F#/J	8d#/J
8r	8r	8r	8r
8BB/	8d\	8B\	8f#/
8C/L	8A/L	8E/L	8e/L
8BB/J	8B/J	8F#/J	8d#/J
8r	8r	8r	8r
16BB/LL	16d\LL	16B\LL	16f#/LL
16BB/JJ	16d\JJ	16B\JJ	16f#/JJ
=108	=108	=108	=108
8C/L	8A/L	8E/L	8e/L
8BB/J	8B/J	8F#/J	8d#/J
8r	8r	8r	8r
8D\	8A/	8G/	8dn/
8GG/L	8G/L	8B\L	8d/L
16GG/L	16G/L	16B\L	16d/L
16GG/JJ	16G/JJ	16B\JJ	16d/JJ
16D/LL	16F#/LL	16A/LL	16d/LL
16D/	16F#/	16A/	16d/
16GG/	16G/	16B/	16d/
16GG/JJ	16G/JJ	16B/JJ	16d/JJ
=109	=109	=109	=109
*M2/4	*M2/4	*M2/4	*M2/4
16D/LL	16F#/LL	16A/LL	16d/LL
16D/J	16F#/J	16A/J	16d/J
8GG/J	8G/J	8B/J	8d/J
8r	8r	8r	8r
8G\	8B\	8d\	8g/
=110	=110	=110	=110
*M6/4	*M6/4	*M6/4	*M6/4
4C/	4c\	4e\	4g/
2D\	2A/	2d\	2f#/
2.GG/	2G/	2B\	2g/
.	4r	4r	4d/
=111	=111	=111	=111
1.r	1.r	1.r	2g/
.	.	.	4a/
.	.	.	2b\
.	.	.	4g/
=112	=112	=112	=112
1.r	1.r	1.r	2a/
.	.	.	4b\
.	.	.	2cc\
.	.	.	4b\
=113	=113	=113	=113
1.r	1.r	1.r	2g/
.	.	.	4a/
.	.	.	2b\
.	.	.	4a/
=114	=114	=114	=114
1.r	1.r	1.r	2g/
.	.	.	4f#/
.	.	.	2g/
.	.	.	4d/
=115	=115	=115	=115
1.r	1.r	1.r	2g/
.	.	.	4a/
.	.	.	2b\
.	.	.	4g/
=116	=116	=116	=116
2.r	2.r	2.r	2a/
.	.	.	4b\
4r	4r	4r	2cc\
4r	4r	4r	.
4G\	4G/	4B\	4b\
=117	=117	=117	=117
2E\	2B\	2e\	2g/
4A\	4c\	4e\	4a/
2G\	2d\	2g\	2b\
4D\	4d\	4f#\	4a/
=118	=118	=118	=118
4E\	4G/	4B\	2g/
2D\	2A/	2d\	.
.	.	.	4f#/
2GG/	2G/	2d\	2.g/
4GG/	4G/	4d\	.
=119!|:	=119!|:	=119!|:	=119!|:
*>B	*>B	*>B	*>B
2E\	2B\	2e\	2g/
4A\	4c\	4e\	4a/
2G\	2d\	2g\	2b\
4D\	4d\	4f#\	4a/
=120	=120	=120	=120
4E\	4G/	4B\	2g/
2D\	2A/	2d\	.
.	.	.	4f#/
2.GG/	2.G/	2.d\	2.g/
=121:|!	=121:|!	=121:|!	=121:|!
*>C	*>C	*>C	*>C
*met(C)	*met(C)	*met(C)	*met(C)
*M4/4	*M4/4	*M4/4	*M4/4
1r	2.c\	1r	1r
.	4c\	.	.
=122	=122	=122	=122
1r	4B\	1r	1r
.	4A/	.	.
.	2B\	.	.
=123	=123	=123	=123
1r	2B\	1r	1r
.	2B\	.	.
=124	=124	=124	=124
1r	4A/	1r	1r
.	4G/	.	.
.	4A/	.	.
.	4A/	.	.
=125	=125	=125	=125
1r	1B	1r	1r
=126	=126	=126	=126
1r	1A	1r	1r
=127	=127	=127	=127
1AA	1A	1e	1cc
=128	=128	=128	=128
2E\	2G/	2e\	2b\
2Fn\	2A/	4c\	2a/
.	.	4d\	.
=129	=129	=129	=129
2E\	2B\	2e\	2a/
2E\	2B\	2e\	2g#/
=130	=130	=130	=130
1AA	1A	1e	1a
=131	=131	=131	=131
4r	4r	4r	4r
2AA/	2A/	2c\	2e/
4AA/	4A/	4c\	4e/
=132	=132	=132	=132
*M3/2	*M3/2	*M3/2	*M3/2
2.E\	2.G/	2.B\	2.e/
4E\	4G/	4B\	4e/
4D\	4A/	4d\	4f#/
4C/	4c\	4e\	4g/
=133	=133	=133	=133
2G\	4c\	2d\	2g/
.	4B\	.	.
2C/	2c\	2e\	2g/
4r	4r	4r	4r
4C/	[4G/	[4c\	[4e/
=134	=134	=134	=134
4C/	4G/]	4c\]	4e/]
4C/	4G/	4c\	4e/
1E	1G	2B\	1g
.	.	2c\	.
=135	=135	=135	=135
*M2/2	*M2/2	*M2/2	*M2/2
2D\	2A/	2d\	2f#/
2D\	2B\	2d\	2f#/
=136	=136	=136	=136
2.C/	2.c\	2G/	2.e/
.	.	2G/	.
4C/	4B\	.	4e/
=137	=137	=137	=137
*M3/2	*M3/2	*M3/2	*M3/2
4D\	4A/	4d\	4f#/
4E\	4G/	4B\	2g/
2D\	2A/	2d\	.
.	.	.	4f#/
[2GG/	[2G/	[2d\	2g/
=138	=138	=138	=138
*M2/2	*M2/2	*M2/2	*M2/2
1GG_	1G_	2d\]	4r
.	.	.	2b\
.	.	4r	.
.	.	[4B\	4b\
=139	=139	=139	=139
1GG_	1G_	4B\]	4dd\
.	.	4B\	4dd\
.	.	4d\	4b\
.	.	4d\	4b\
=140	=140	=140	=140
2GG/]	2G/]	4B\	2dd\
.	.	4B\	.
2r	2r	2d\	2b\
=141	=141	=141	=141
4r	4r	2B\	4r
2GG/	2G/	.	2g/
.	.	4r	.
4GG/	4G/	[4e\	4g/
=142	=142	=142	=142
1C	2G/	4e\]	1g
.	.	4e\	.
.	2E/	2e\	.
=143	=143	=143	=143
2C/	2.E/	4.c\	2g/
.	.	8B\	.
4C/	.	4A/	4a/
4BB/	4D/	4G/	4b\
=144	=144	=144	=144
2AA/	2C/	4G/	2cc\
.	.	4F#/	.
[2GG/	[2D/	[2G/	[2b\
=145	=145	=145	=145
*M4/4	*M4/4	*M4/4	*M4/4
2GG/]	2D/]	2G/]	2b\]
8G\L	4r	8d\L	2r
8D\J	.	8B\J	.
8G\L	8B/L	8d\L	.
8D\J	8A/J	8B\J	.
=146	=146	=146	=146
2G\	8B/L	8G/	8g/L
.	8G/J	4e\	8d/J
.	4d\	.	8g/L
.	.	8d\	8d/J
2r	2r	4c\	8g/
.	.	.	4g/
.	.	4d\	.
.	.	.	8f#/
=147	=147	=147	=147
*M3/4	*M3/4	*M3/4	*M3/4
2r	2r	2r	4e/
.	.	.	4d/
8r	8r	4r	4r
8G\	8B\	.	.
=148	=148	=148	=148
*M2/4	*M2/4	*M2/4	*M2/4
4G\	4B\	4r	4r
4D\	4A/	4r	4r
=149	=149	=149	=149
8E\	8c\	2r	2r
4D\	4B\	.	.
8BB/	8G/	.	.
=150	=150	=150	=150
4C/	4A/	4r	4r
4BB/	4B\	4r	4r
=151	=151	=151	=151
8r	8r	8r	8r
4BB/	4F#/	4B\	4d/
8BB/	8F#/	8B\	8d/
=152	=152	=152	=152
8.BB/L	8.F#/L	8.B\L	8.d/L
16BB/Jk	16F#/Jk	16A\Jk	16d/Jk
8BB/L	8F#/L	8B\L	8d/L
8BB/J	8F#/J	8B\J	8d/J
=153	=153	=153	=153
4D\	4F#/	4A/	4d/
8GG/	4G/	4B\	4d/
8r	.	.	.
=154	=154	=154	=154
8r	8r	8r	8r
4G\	4B\	4d\	4g/
8D\	8A/	8d\	8f#/
=155	=155	=155	=155
4E\	4G/	4B\	4e/
4BB/	4F#/	4B\	4d/
=156	=156	=156	=156
8D\	8F#/	8A/	8f#/
4C/	4G/	4c\	4e/
8D\	8F#/	8A/	8d/
=157	=157	=157	=157
4AA/	4E/	4A/	8d/L
.	.	.	8c#/J
[4D\	[4D/	4A/	[4d/
=158	=158	=158	=158
4D\]	4D/]	4r	4d/]
4r	4r	8A/L	4r
.	.	8A/J	.
=159	=159	=159	=159
*M3/4	*M3/4	*M3/4	*M3/4
8D\L	2.r	4d\	2.r
8D\J	.	.	.
4G\	.	8r	.
.	.	4e\	.
8G\L	.	.	.
[8F#\J	.	[8d\	.
=160	=160	=160	=160
*M4/4	*M4/4	*M4/4	*M4/4
8F#\L]	2r	8d\L]	2r
8G\J	.	8B\J	.
4E\	.	4c#\	.
4D\	4r	4d\	4r
4r	8d\L	4r	8f#/L
.	16d\L	.	16f#/L
.	16d\JJ	.	16f#/JJ
=161	=161	=161	=161
1r	8d\L	1r	8f#/L
.	8B\J	.	8d/J
.	8c\L	.	8e/L
.	8A\J	.	8f#/J
.	2G/	.	2g/
=162	=162	=162	=162
4G\	1r	4B\	4r
4G\	.	4B\	8d/L
.	.	.	16e/L
.	.	.	16f#/JJ
2G\	.	16d\LL	2g/
.	.	16c\	.
.	.	16d\	.
.	.	16e\JJ	.
.	.	8d\L	.
.	.	8d\J	.
=163	=163	=163	=163
4G\	1r	8d\L	4r
.	.	8B\J	.
4G\	.	4B\	8d/L
.	.	.	16e/L
.	.	.	16f#/JJ
2Fn\	.	2B\	2g/
=164	=164	=164	=164
1r	2d\	1r	1r
.	8c\L	.	.
.	8B\J	.	.
.	8A\L	.	.
.	[8B\J	.	.
=165	=165	=165	=165
4r	8B\L]	4r	4r
.	8c\J	.	.
8r	4A/	8r	8r
8D\	.	8d\	8f#/
4E\	4G/	4B\	4g/
8D\L	4r	8d\L	8f#/L
8GG\J	.	8B\J	8d/J
=166	=166	=166	=166
8C\L	2r	8c\L	8e/L
8D\J	.	8A\J	8f#/J
4GG/	.	4G/	4g/
2r	16d\LL	2r	2r
.	16c\	.	.
.	16d\	.	.
.	16e\JJ	.	.
.	8d\L	.	.
.	8d\J	.	.
=167	=167	=167	=167
4G\	8d\L	1r	8g/L
.	8B\J	.	16f#/L
.	.	.	16e/JJ
4G\	8B\L	.	8d/L
.	16B\L	.	16e/L
.	16B\JJ	.	16f#/JJ
2Fn\	4B\	.	[4g/
.	8r	.	4g/]
.	8G/	.	.
=168	=168	=168	=168
1r	8A/L	4r	1r
.	8B/J	.	.
.	4G/	8r	.
.	.	16d\LL	.
.	.	16d\JJ	.
.	2r	8d\L	.
.	.	8B\J	.
.	.	8c\L	.
.	.	8d\J	.
=169	=169	=169	=169
1r	4r	2B\	2r
.	4G/	.	.
.	4A/	2r	4r
.	4B\	.	4d/
=170	=170	=170	=170
4r	4c\	2r	4e/
4D\	4d\	.	4f#/
4E\	2r	4G/	4g/
4F#\	.	4A/	4r
=171	=171	=171	=171
4G\	2r	4B\	2r
4A\	.	4c\	.
4D\	4r	4d\	4r
8r	8r	8r	8r
8D\	8A/	8d\	8f#/
=172	=172	=172	=172
4G\	4B\	4d\	4g/
4D\	4A/	4d\	4f#/
4G\	8B/L	16d\LL	8g/L
.	.	16c\	.
.	16A/L	16d\	16g/L
.	16B/JJ	16e\JJ	16g/JJ
8C\L	8c\L	4c\	8g/L
[8G\J	[8B\J	.	[8g/J
=173	=173	=173	=173
*M2/4	*M2/4	*M2/4	*M2/4
8G\L]	8B\L]	8e\L	8g/L]
8C\J	8c\J	8e\J	8g/J
4E\	8B/L	4c\	8g/L
.	16A/L	.	16f#/L
.	16G/JJ	.	16e/JJ
=174	=174	=174	=174
*M6/4	*M6/4	*M6/4	*M6/4
2D\	2A/	2d\	2f#/
4G\	4B\	4d\	4g/
4C/	4c\	4e\	4g/
2D\	2A/	2d\	2f#/
=175	=175	=175	=175
2GG/	2G/	2.d\	2g/
4r	4r	.	4r
2G\	2G/	2.r	2.r
4D\	4A/	.	.
=176	=176	=176	=176
2G\	2B\	2.r	2.r
4G\	4B\	.	.
2C/	2c\	2e\	2g/
4C/	4c\	4e\	4a/
=177	=177	=177	=177
2G\	2B\	2d\	2b\
4G\	4G/	4d\	4b\
2.r	2.r	2e\	2cc\
.	.	4e\	4cc\
=178	=178	=178	=178
2GG/	2G/	2d\	2b\
4GG/	4G/	4B\	4g/
2D\	2F#/	2.r	2.r
4D\	4F#/	.	.
=179	=179	=179	=179
4E\	4G/	2G/	2g/
2C/	2E/	.	.
.	.	4G/	4g/
2.D\	2.D/	2d\	2f#/
.	.	4d\	4f#/
=180	=180	=180	=180
2.r	2.r	4e\	4g/
.	.	2c\	2e/
2GG/	2G/	2.d\	2.d/
4D\	4A/	.	.
=181	=181	=181	=181
2GG/	2B\	2.r	2.r
4G\	4B\	.	.
2C/	2c\	2e\	2g/
4C/	4c\	4e\	4a/
=182	=182	=182	=182
2.G\	2.B\	2d\	2b\
.	.	4d\	4b\
2.r	2.r	2e\	2cc\
.	.	4e\	4cc\
=183	=183	=183	=183
2GG/	2G/	2.d\	2.b\
4GG/	4G/	.	.
2D\	2F#/	2.r	2.r
4D\	4F#/	.	.
=184	=184	=184	=184
4E\	4G/	2G/	2g/
2C/	2E/	.	.
.	.	4G/	4g/
2D\	2D/	2d\	2f#/
4D\	4D/	4d\	4f#/
=185	=185	=185	=185
4G\	2.r	4e\	4g/
2A\	.	2c\	2e/
4B\	2G/	2d\	2d/
4G\	.	.	.
4F#\	4A/	4d\	4d/
=186	=186	=186	=186
*M9/4	*M9/4	*M9/4	*M9/4
4G\	4B\	4d\	2g/
4C/	4E/	2c\	.
4AA/	4F#/	.	4a/
4GG/	2G/	2B\	2b\
4GG/	.	.	.
4D\	4F#/	4d\	4a/
4E\	4G/	4B\	2g/
2D\	2A/	2d\	.
.	.	.	4f#/
=187	=187	=187	=187
*met(C)	*met(C)	*met(C)	*met(C)
*M4/4	*M4/4	*M4/4	*M4/4
2GG/	2G/	2d\	2g/
2GG/	2G/	2d\	2g/
=188	=188	=188	=188
2r	1r	8d\L	2r
.	.	16c\L	.
.	.	16d\JJ	.
.	.	8e\	.
.	.	4d\	.
4G\	.	.	4g/
.	.	8d\	.
4D\	.	8d\L	4a/
.	.	16d\L	.
.	.	16d\JJ	.
=189	=189	=189	=189
4G\	2r	4d\	4.b\
8G\	.	8d\	.
4G\	.	4d\	8b\
.	4G/	.	4b\
8G\	.	8g\	.
8C/L	4A/	8e\L	4cc\
8C/J	.	8e\J	.
=190	=190	=190	=190
4G\	4.B\	4d\	4b\
8G\	.	8d\	4g/
4G\	8B\	4d\	.
.	4B\	.	2r
8G\	.	16c\LL	.
.	.	16d\JJ	.
8C/L	4c\	8e\L	.
8C/J	.	8e\J	.
=191	=191	=191	=191
4G\	4B\	4d\	8b\L
.	.	.	8cc\J
8r	4G/	8r	8dd\L
8GG/	.	8B\	8b\J
4C/	2r	4e\	4cc\
8GG\L	.	8d\L	4b\
[8G\J	.	[8d\J	.
=192	=192	=192	=192
8G\L]	8B\L	8d\L]	2g/
8G\J	8c\J	8d\J	.
8G\L	8d\L	8d\L	.
8G\J	8B\J	16c\L	.
.	.	16d\JJ	.
4E\	4c\	4e\	4g/
8E\L	4B\	8e\L	4b\
[8E\J	.	[8e\J	.
=193	=193	=193	=193
8E\L]	2G/	8e\L]	4b\
8E\J	.	8e\J	.
4E\	.	4B\	8a/L
.	.	.	8g/J
4D\	4A/	2d\	4f#/
8D\L	8A/L	.	8f#/L
[8D\J	[8F#/J	.	[8d/J
=194	=194	=194	=194
8D\L]	8F#/L]	4r	8d/L]
8D\J	8F#/J	.	8d/J
4D\	8F#/L	8A/L	8d/L
.	16E/L	8A/J	16d/L
.	16F#/JJ	.	16d/JJ
2GG/	8G/L	4.B\	4d/
.	16F#/L	.	.
.	16G/JJ	.	.
.	4D/	.	8g/L
.	.	8B\	16f#/L
.	.	.	16g/JJ
=195	=195	=195	=195
4GG/	8G/L	4B\	4d/
.	16F#/L	.	.
.	16G/JJ	.	.
4AA/	4E/	4c\	8a/L
.	.	.	16g/L
.	.	.	16a/JJ
4.BB/	2D/	4.B\	8f#/L
.	.	.	16e/L
.	.	.	16f#/JJ
.	.	.	[4d/
8BB/	.	8A/	.
=196	=196	=196	=196
4BB/	8G/L	2G/	4d/]
.	16F#/L	.	.
.	16G/JJ	.	.
4C/	4E/	.	4e/
4BB/	4G/	8B\L	4d/
.	.	8c\J	.
4GG/	8r	8d\L	8r
.	8G/	8B\J	8d/
=197	=197	=197	=197
4C/	4G/	4c\	4e/
4D\	16d\LL	4B\	8f#/L
.	16c\J	.	.
.	8d\J	.	16e/L
.	.	.	16f#/JJ
4.E\	8B/L	4G/	4g/
.	16A/L	.	.
.	16B/JJ	.	.
.	[4G/	8G/L	8g/L
8E\	.	8G/J	[8g/J
=198	=198	=198	=198
4E\	4G/]	4B\	8g/L]
.	.	.	8g/J
4E\	4G/	4c\	8g/L
.	.	.	16f#/L
.	.	.	16e/JJ
2D\	2A/	2d\	2f#/
=199	=199	=199	=199
4D\	4r	4d\	4r
8D\L	8A/L	8d\L	8f#/L
8D\J	8A/J	8d\J	8f#/J
4.G\	4.B\	4.d\	4.g/
8G\	8B\	8d\	8g/
=200	=200	=200	=200
4G\	4B\	4d\	4g/
4C/	4c\	4e\	4g/
4G\	4B\	4d\	4g/
4G\	4G/	4d\	4g/
=201	=201	=201	=201
4.Fn\	4.c\	4.fn\	4.a/
8G\	8B\	8e\	8g/
8D\L	8A/L	8d\L	8f#/
8E\J	8G/J	8c\J	4g/
4D\	4A/	4d\	.
.	.	.	8f#/
=202	=202	=202	=202
4GG/	2G/	4d\	2g/
8r	.	8r	.
8G\	.	8d\	.
8G\L	2r	8d\L	4g/
16G\L	.	16d\L	.
16G\JJ	.	16d\JJ	.
8D\L	.	8d\L	4a/
8D\J	.	8d\J	.
=203	=203	=203	=203
4G\	2r	4d\	4.b\
8G\	.	8d\	.
4G\	.	4d\	8b\
.	4G/	.	8b/L
8G\	.	8g\	16a/L
.	.	.	16b/JJ
8C/L	4A/	8e\L	8cc\L
8C/J	.	8e\J	8cc\J
=204	=204	=204	=204
4G\	4.B\	4d\	4b\
8G\	.	8d\	4g/
4G\	8B\	4d\	.
.	4B\	.	2r
8G\	.	16c\LL	.
.	.	16d\JJ	.
8C/L	4c\	8e\L	.
8C/J	.	8e\J	.
=205	=205	=205	=205
4G\	4B\	4d\	8b\L
.	.	.	8cc\J
8r	4G/	8r	8dd\L
8GG/	.	8B\	8b\J
4C/	2r	4e\	4cc\
8GG\L	.	8d\L	4b\
[8G\J	.	[8d\J	.
=206	=206	=206	=206
8G\L]	8B\L	8d\L]	2g/
8G\J	8c\J	8d\J	.
8G\L	8d\L	8d\L	.
8G\J	8B\J	8d\J	.
4E\	4c\	4e\	4g/
8E\L	4B\	8e\L	8b/L
[8E\J	.	[8e\J	16a/L
.	.	.	16b/JJ
=207	=207	=207	=207
8E\L]	2G/	8e\L]	8cc\L
8E\J	.	8e\J	8b\J
4E\	.	4B\	8a/L
.	.	.	8g/J
4D\	4A/	4d\	4f#/
8D\L	8A/L	8d\L	8f#/L
[8D\J	[8A/J	[8d\J	[8f#/J
=208	=208	=208	=208
8D\L]	8A/L]	8d\L]	8f#/L]
8D\J	8A/J	8d\J	8f#/J
4D\	8A/L	4d\	8f#/L
.	16G/L	.	16e/L
.	16A/JJ	.	16f#/JJ
4.G\	4.B\	4.d\	4.g/
8G\	8B\	8d\	8g/
=209	=209	=209	=209
8G\L	8B/L	8d\L	8g/L
16G\L	16A/L	16c\L	16g/L
16G\JJ	16B/JJ	16d\JJ	16g/JJ
8C/L	8c\L	8e\L	8g/L
8C/J	8c\J	8e\J	8g/J
4G\	4B\	4d\	4g/
4G\	4G/	4d\	4g/
=210	=210	=210	=210
4.Fn\	4.c\	4.fn\	4.a/
8G\	8B\	8e\	8g/
8D\L	8A/L	8d\L	8f#/
8E\J	8G/J	8c\J	4g/
4D\	4A/	4d\	.
.	.	.	8f#/
=211	=211	=211	=211
4GG/	2G/	4d\	2g/
8r	.	8r	.
8G\	.	8d\	.
8G\L	2r	8d\L	4g/
8G\J	.	16d\L	.
.	.	16d\JJ	.
8D\L	.	8d\L	4a/
8D\J	.	8d\J	.
=212	=212	=212	=212
4G\	2r	4d\	4.b\
8G\	.	8d\	.
4G\	.	4d\	8b\
.	4G/	.	4b\
8G\	.	8g\	.
8C/L	4A/	8e\L	4cc\
8C/J	.	8e\J	.
=213	=213	=213	=213
4G\	4.B\	4d\	4b\
8G\	.	8d\	4g/
4G\	8B\	4d\	.
.	4B\	.	2r
8G\	.	16c\LL	.
.	.	16d\JJ	.
8C/L	4c\	8e\L	.
8C/J	.	8e\J	.
=214	=214	=214	=214
4G\	4B\	4d\	8b\L
.	.	.	8cc\J
8r	4G/	8r	8dd\L
8GG/	.	8B\	8b\J
4C/	2r	4e\	4cc\
8GG\L	.	8d\L	8b\L
[8G\J	.	[8d\J	8b\J
=215	=215	=215	=215
8G\L]	8B\L	8d\L]	2g/
8G\J	8c\J	8d\J	.
8G\L	8d\L	8d\L	.
8G\J	8B\J	8d\J	.
4E\	4c\	4e\	4g/
8E\L	8B\L	8e\L	8b\L
[8E\J	8B\J	[8e\J	8b\J
=216	=216	=216	=216
8E\L]	2G/	8e\L]	4b\
8E\J	.	8e\J	.
4E\	.	4c\	8a/L
.	.	.	8g/J
2D\	2A/	2d\	2f#/
=217	=217	=217	=217
*M2/4	*M2/4	*M2/4	*M2/4
4r	4r	4r	4r
8D\L	8A/L	8d\L	8f#/L
8D\J	8A/J	8d\J	8f#/J
=218	=218	=218	=218
*M4/4	*M4/4	*M4/4	*M4/4
4G\	4B\	4d\	4g/
8G\L	8B\L	8d\L	8g/L
8G\J	8B\J	8d\J	8g/J
4G\	4B\	4d\	4g/
4C/	4c\	4e\	4g/
=219	=219	=219	=219
*M2/4	*M2/4	*M2/4	*M2/4
4G\	4B\	4d\	4g/
4G\	4G/	4d\	4g/
=220	=220	=220	=220
*M4/4	*M4/4	*M4/4	*M4/4
4.Fn\	4.c\	4.fn\	4.a/
8G\	8B\	8e\	8g/
8D\L	8A/L	8d\L	8f#/
8E\J	8G/J	8c\J	4g/
4D\	4A/	4d\	.
.	.	.	8f#/
=221	=221	=221	=221
1GG	1G	2d\	2g/
.	.	8.B\L	8.d/L
.	.	16B\Jk	16d/Jk
.	.	8B\L	8d/L
.	.	8B\J	8d/J
=222	=222	=222	=222
2r	2r	8B\L	8d/L
.	.	8B\J	8d/J
.	.	4c\	4e/
8.BB/L	8.D/L	2B\	2d/
16BB/Jk	16D/Jk	.	.
8BB/L	8D/L	.	.
8BB/J	8D/J	.	.
=223	=223	=223	=223
8C/L	8E/L	2r	2r
8BB/J	8D/J	.	.
8C/L	8E/L	.	.
8D/J	8F#/J	.	.
2GG/	2G/	8.B\L	8.d/L
.	.	16B\Jk	16d/Jk
.	.	8B\L	8d/L
.	.	8B\J	8d/J
=224	=224	=224	=224
2r	2r	8c\L	8e/L
.	.	8B\J	8d/J
.	.	8c\L	8e/L
.	.	8d\J	8f#/J
8r	8r	4G/	4g/
8GG/	8D/	.	.
8C/L	8E/L	4r	4r
8D/J	8F#/J	.	.
=225	=225	=225	=225
4GG/	4G/	8r	8r
.	.	8B\	8d/
4r	4r	8c\L	8e/L
.	.	8d\J	8f#/J
2r	2r	2G/	2g/
=226	=226	=226	=226
*M6/4	*M6/4	*M6/4	*M6/4
2G\	1.r	2B\	2d/
4G\	.	4B\	4d/
4.C/	.	4.c\	4.e/
8C/	.	8c\	8e/
4E\	.	4G/	4g/
=227	=227	=227	=227
4D\	2.r	4A/	4f#/
4.C/	.	4.A/	4.e/
8BB/	.	8B\	8d#/
2.BB/	4r	2B\	2d#/
.	4r	.	.
.	4B\	4d\	4f#/
=228	=228	=228	=228
1.r	2B\	2d\	2f#/
.	4G/	4e\	4g/
.	4c\	2e\	4e/
.	2B\	.	2f#/
.	.	4d\	.
=229	=229	=229	=229
1.r	2E/	2e\	2e/
.	4B\	4d\	4f#/
.	2B\	2d\	2f#/
.	4G/	4e\	4g/
=230	=230	=230	=230
1.r	4c\	2e\	4e/
.	2B\	.	2f#/
.	.	4d#\	.
.	2E/	2e\	2e/
.	4r	4r	4r
=231	=231	=231	=231
2E\	2B\	2e\	2g/
4E\	4B\	4e\	4g/
2BB/	2B\	2d#\	2f#/
4BB/	4B\	4d#\	4f#/
=232	=232	=232	=232
2E\	2B\	2e\	2g/
4E\	4B\	4e\	4g/
2BB/	2.B\	2.d#\	2.f#/
4r	.	.	.
=233	=233	=233	=233
2E\	2G/	2B\	2e/
4E\	4G/	4B\	4e/
2BB/	2F#/	2B\	2d#/
4BB/	4F#/	4B\	4d#/
=234	=234	=234	=234
*M9/4	*M9/4	*M9/4	*M9/4
2E\	2G/	2B\	2e/
4BB/	4F#/	4B\	4d#/
2.C/	2.E/	2.A/	2.e/
2BB/	2F#/	2B\	2d#/
4r	4r	4r	4r
=235	=235	=235	=235
2GG/	2G/	2d\	2b\
4GG/	4G/	4d\	4b\
2GG/	2G/	2d\	2b\
4GG/	4G/	4d\	4b\
2D\	2F#/	2d\	2a/
4D\	4F#/	4d\	4a/
=236	=236	=236	=236
*M6/4	*M6/4	*M6/4	*M6/4
4r	4r	4r	4r
2E\	2G/	2B\	2g/
12BB/L	12B\L	12d\L	12f#/L
12BB/	12B\	12d\	12e/
12BB/J	12B\J	12d\J	12d/J
2F#\	2A#/	2f#\	2c#/
=237	=237	=237	=237
[2.BB/	[2.B\	[2.d#\	[2.B/
4.BB/]	4.B\]	4.d#\]	4.B/]
=!|:	=!|:	=!|:	=!|:
*>D	*>D	*>D	*>D
4BB/	4F#/	4d\	4B/
8BB/	8F#/	8B\	8B/
=238	=238	=238	=238
2.BB/	2.F#/	2.B\	2.d#/
2.E\	2.G/	2.B\	2.e/
=239	=239	=239	=239
*>D1	*>D1	*>D1	*>D1
[2.BB/	[2.F#/	[2.d\	[2.f#/
4.BB/]	4.F#/]	4.d\]	4.f#/]
=240:|!	=240:|!	=240:|!	=240:|!
*>D2	*>D2	*>D2	*>D2
1.BB	1.F#	1.d	1.f#
=241	=241	=241	=241
*>E	*>E	*>E	*>E
*met(C)	*met(C)	*met(C)	*met(C)
*M4/4	*M4/4	*M4/4	*M4/4
4.GG/	4.G/	4.d\	4.b\
8GG/	8G/	8d\	8b\
8GG/L	8G/L	8d\L	8b\L
8GG/J	8G/J	8d\J	8b\J
8GG/L	8G/L	8d\L	8b\L
8GG/J	8G/J	8d\J	8b\J
=242	=242	=242	=242
4GG/	4G/	4d\	4b\
8GG/L	8G/L	8d\L	8b\L
8GG/J	8G/J	8d\J	8b\J
2C/	2E/	2e\	2g/
=243	=243	=243	=243
2BB/	4F#/	2d\	2b\
.	8B\L	.	.
.	8B\J	.	.
4E\	4B\	4e\	4g/
8BB/L	8B\L	8d\L	8f#/L
8BB/J	8B\J	8d\J	8f#/J
=244	=244	=244	=244
4E\	4B\	4e\	4g/
8BB/L	8B\L	8d#\L	8f#/L
8BB/J	8B\J	8d#\J	8f#/J
8E\L	8B\L	8e\L	8g/L
8E\J	8B\J	8e\J	8g/J
8BB/L	8B\L	8d#\L	8f#/L
8BB/J	8B\J	8d#\J	8f#/J
=245	=245	=245	=245
8E\L	8B\L	8e\L	8g/L
8E\J	8B\J	8e\J	8g/J
8BB/L	8B\L	8d#\L	8f#/L
8BB/J	8B\J	8d#\J	8f#/J
2E\	2B\	2e\	2g/
=246	=246	=246	=246
1BB	1B	2d#\	2f#/
.	.	4r	4r
.	.	[4B\	[4d#/
=247	=247	=247	=247
1r	1r	4B\]	4d#/]
.	.	4B\	4d#/
.	.	4c\	4e/
.	.	4B\	4d#/
=248	=248	=248	=248
1r	1r	4c\	4e/
.	.	4d\	4f#/
.	.	2e\	2g/
=249	=249	=249	=249
4r	4r	2B\	2f#/
2BB/	2D#/	.	.
.	.	2r	2r
4BB/	4D#/	.	.
=250	=250	=250	=250
4C/	4E/	1r	1r
4BB/	4D#/	.	.
4C/	4E/	.	.
4D\	4F#/	.	.
=251	=251	=251	=251
2E\	2G/	2r	2r
2BB/	2F#/	4r	4r
.	.	4B\	4f#/
=252	=252	=252	=252
1r	1r	2d\	2f#/
.	.	4e\	4g/
.	.	4d\	4f#/
=253	=253	=253	=253
2r	2r	4e\	4g/
.	.	4c\	4e/
4r	4r	2d\	2f#/
4BB/	4F#/	.	.
=254	=254	=254	=254
2D\	2F#/	1r	1r
4E\	4G/	.	.
4D\	4F#/	.	.
=255	=255	=255	=255
4E\	4G/	2r	2r
4C/	4E/	.	.
2BB/	2F#/	4r	4r
.	.	[4d\	[4f#/
=256	=256	=256	=256
1r	1r	4d\]	4f#/]
.	.	4d\	4f#/
.	.	4e\	4g/
.	.	4d\	4f#/
=257	=257	=257	=257
2r	2r	4e\	4g/
.	.	4c\	4a/
4r	4r	2B\	2b\
[4G\	[4d\	.	.
=258	=258	=258	=258
4G\]	4d\]	1r	1r
4F#\	4d\	.	.
4E\	4c\	.	.
4D\	4B\	.	.
=259	=259	=259	=259
4E\	4G/	1r	1r
4C/	4A/	.	.
2BB/	2B\	.	.
=260!|:	=260!|:	=260!|:	=260!|:
*>F	*>F	*>F	*>F
*M6/8	*M6/8	*M6/8	*M6/8
8E\L	8B/L	8e\L	8g/L
8E\	8B/	8e\	8g/
8E\J	8G/J	8B\J	8g/J
8D\L	8A/L	8d\L	8f#/L
8D\	8A/	8d\	8f#/
8BB\J	8B/J	8d\J	8f#/J
=261	=261	=261	=261
8E\L	8B/L	8e\L	8g/L
8E\	8B/	8e\	8g/
8E\J	8G/J	8B\J	8g/J
4D\	4A/	4d\	4f#/
8BB/	8B\	8d\	8f#/
=262	=262	=262	=262
4C/	4E/	4G/	4e/
8C/	8E/	8G/	8e/
8C/	8E/	8G/	8e/
4BB/	4F#/	4B\	4d#/
=263	=263	=263	=263
4.E\	4.E/	4.B\	4.e/
4.E\	4.E/	4.B\	4.e/
=264:|!	=264:|!	=264:|!	=264:|!
*>G	*>G	*>G	*>G
*met(C)	*met(C)	*met(C)	*met(C)
*M4/4	*M4/4	*M4/4	*M4/4
8E\L	8B\L	8e\L	8g/L
8E\J	8B\J	8e\J	8g/J
8E\L	8B\L	8e\L	8g/L
8E\J	8B\J	8e\J	8g/J
4.BB/	4.B\	4.d\	4.f#/
8BB/	8B\	8d\	8f#/
=265	=265	=265	=265
8D\L	8A/L	8d\L	8f#/L
8E\J	8G/J	8c\J	8g/J
8D/L	8A/L	8d\L	8f#/L
8C/J	8E/J	8A\J	8e/J
4BB/	4F#/	4B\	4d#/
4BB/	4F#/	4B\	4d#/
=266	=266	=266	=266
8E\L	8E/L	8B\L	8e/L
8BB\J	8F#/J	8B\J	8d#/J
8E\L	8G/L	8B/L	8e/L
8D\J	8A/J	8F#/J	8f#/J
4.BB/	4.B\	4.F#/	4.d#/
8BB/	8B\	8F#/	8d#/
=267	=267	=267	=267
8E\L	8B\L	8E/L	8e/L
8BB\J	8B\J	8F#/J	8d#/J
8E\L	8B/L	8G/L	8e/L
8D\J	8F#/J	8A/J	8f#/J
4BB/	4F#/	4B\	4d#/
4BB/	4F#/	4B\	4d#/
=268	=268	=268	=268
8E\L	8.E/L	8.G/L	8g/L
8E\J	.	.	8g/J
.	16F#/Jk	16A/Jk	.
8E\L	8.G/L	8.B\L	8g/L
8E\J	.	.	8g/J
.	16A/Jk	16c\Jk	.
4.BB/	4.B\	4.d\	4.f#/
8BB/	8B\	8d\	8f#/
=269	=269	=269	=269
8D\L	8A/L	8d\L	8f#/L
8E\J	8G/J	8c\J	8g/J
8D/L	8A/L	8d\L	8f#/L
8C/J	8E/J	8A\J	8e/J
4BB/	4F#/	4B\	4d#/
4BB/	4F#/	4B\	4d#/
=270	=270	=270	=270
8GG/L	8G/L	8c\L	8b\L
8GG/J	8G/J	8d\J	8b\J
8GG/L	8G/L	8d\L	8b\L
8GG/J	8G/J	8d\J	8b\J
4.GG/	4.G/	4.d\	4.b\
8GG/	8G/	8d\	8b\
=271	=271	=271	=271
8C/L	8E/L	8e\L	8.g/L
8C/J	8E/J	8e\J	.
.	.	.	16f#/Jk
8C/L	8E/L	8e\L	8.g/L
8C/J	8E/J	8e\J	.
.	.	.	16a/Jk
2BB/	2F#/	2d#\	2b\
=272	=272	=272	=272
*M3/4	*M3/4	*M3/4	*M3/4
2E\	2E/	2e\	2b\
4r	4r	8r	4r
.	.	8B\	.
=273	=273	=273	=273
*M6/8	*M6/8	*M6/8	*M6/8
2.r	2.r	4e\	2.r
.	.	8e\	.
.	.	8d#\	.
.	.	4e\	.
=274	=274	=274	=274
*M2/4	*M2/4	*M2/4	*M2/4
2r	2r	8B\L	2r
.	.	8B\J	.
.	.	4e\	.
=275	=275	=275	=275
*M2/2	*M2/2	*M2/2	*M2/2
2r	2r	2B\	2r
2E\	2B\	2e\	2g/
=276	=276	=276	=276
4E\	4B\	4e\	4g/
4E\	4B\	4e\	4g/
2E\	2B\	2e\	2g/
=277	=277	=277	=277
4E\	4B\	4e\	4g/
4E\	4G/	4B\	4e/
4D\	4A/	4d\	4f#/
4BB/	4G/	4d\	4g/
=278	=278	=278	=278
2AA/	4G/	2c\	2a/
.	4F#/	.	.
2GG/	2G/	2B\	2b\
=279	=279	=279	=279
4r	4r	4r	4r
4GG/	4G/	4d\	4b\
2GG/	2G/	2d\	2b\
=280	=280	=280	=280
4GG/	4G/	4d\	4b\
4GG/	4G/	4d\	4b\
4D\	4F#/	4d\	4a/
4E\	4G/	4B\	4g/
=281	=281	=281	=281
2D\	2A/	2d\	4g/
.	.	.	4f#/
2GG/	2G/	2d\	2g/
=282	=282	=282	=282
4r	4r	4r	4r
2E\	2B\	2e\	2g/
4E\	4B\	4e\	4g/
=283	=283	=283	=283
4E\	4B\	4e\	4g/
4E\	4B\	4e\	4g/
[2BB/	[2B\	[2d\	[2f#/
=284	=284	=284	=284
2BB/]	2B\]	2d\]	2f#/]
2D\	2A/	2d\	2f#/
=285	=285	=285	=285
2.D\	2.A/	2.d\	2.f#/
4E\	4G/	4B\	4g/
=286	=286	=286	=286
4D\	4A/	4d\	4f#/
4C/	4E/	4A/	4e/
[2BB/	[2F#/	[2B\	[2d#/
=287	=287	=287	=287
2BB/]	2F#/]	2B\]	2d#/]
2BB/	2F#/	2B\	2d#/
=288	=288	=288	=288
2.C/	2.E/	2.G/	2.e/
4GG#/	4E/	4B\	4e/
=289	=289	=289	=289
4AA/	4.C/	4c\	4e/
4AA/	.	4c\	4e/
.	8D/	.	.
2EE/	2E/	2B\	2e/
==	==	==	==
*-	*-	*-	*-
!!!ENC: Craig Stuart Sapp
!!!END: 2004/12/10/
